X:26
T:Johnnie Mickey's
N:For teaching purposes from Alan Ng
Z: id:ng-other-26 Transcribed by Alan Ng alan@alan-ng.nospam (net) 28 Oct. 2007
M:2/4
L:1/8
K:A
|Ac EF|A2 Af|ec BA|e/f/e/c/ BA|Ac EF|A2 Af|ec BA/B/|cA A2::\
ce ce|a2 a>f|ec BA|e/f/e/c/ BA|ce ce|a2 af|ec BA/B/|cA A2:|]**
